X:1
T:Title
%%score 1 { ( 2 4 ) | 3 }
L:1/8
Q:1/4=76
M:3/4
K:C
V:1 treble nm="Singstimme\nVoice"
V:2 treble nm="Pianoforte"
V:4 treble 
V:3 bass 
V:1
"^Adagio"!mp! G2 |: c4 e2 | g4 c2 | c2 d2 e2 |{e} d4 G2 | B4 d2 | f4 B2 | (B2 d2) f2 | (f2 e2) G2 | %9
 c4 e2 | g4 c2 | c2 d2 e2 |{e} d4 d2 | f4 g2 | d4 d2 | (g2 f2) d2 | c2 z2 e2 | f4 d2 | c4 e2 | %19
 (g2 f2) d2 | c4 c2 | e4 ^d2 | e4 d2 | d4 ^c2 | d4 d2 | (B2 d2) g2 | g4 B2 | (d2 ^F2) A2 | G4 d2 | %29
 (B2 d2) g2 | g4 B2 | (d2 ^F2) A2 | G2 z2 G2 | _B4 e2 | f4 d2 | (c2 B2) A2 | (A2 G2) G2 | c4 e2 | %38
 g4 c2 | (c2 d2) e2 | (e2 d2) G2 | B4 d2 | f4 B2 | (B2 d2) f2 | (f2 e2) G2 | c4 e2 | g4 c2 | %47
 c2 d2 e2 |{e} d4 d2 | f4 g2 | d4 d2 | (g2 f2) d2 | c2 z2 e2 | (g2 f2) d2 | (f2 e2) c2 | %55
 (B2 A2) G2 | e4 e2 | (g2 f2) d2 | (f2 e2) c2 | (B2 A2) B2 | c2 z2 z2 | z6 | z6 | z6 | %64
 z2 z2!mp! G2 :| %65
V:2
 z2 |:!pp! z [CEG][CEG][CEG][CEG][CEG] | z [CEG][CEG][CEG][CEG][CEG] | %3
 z [CEG][CEG][CEG][CEG][CEG] | z [DFG][DFG][DFG][DFG][DFG] | z [B,FG][B,FG][B,FG][B,FG][B,FG] | %6
 z [B,FG][B,FG][B,FG][B,FG][B,FG] | z [B,FG][B,FG][B,FG][B,FG][B,FG] | %8
 z [CEG][CEG][CEG][CEG][CEG] | z [CEG][CEG][CEG][CEG][CEG] | z [CEG][CEG][CEG][CEG][CEG] | %11
 z [CEG][CEG][CEG][CEG][CEG] | z [DFG][DFG][DFG][DFG][DFG] | z [B,FG][B,FG][B,FG][B,FG][B,FG] | %14
 z [B,FG][B,FG][B,FG][B,FG][B,FG] | z [B,FG][B,FG][B,FG][B,FG][B,FG] | %16
 z [CEG][CEG][CEG][CEG][CEG] | z [FG][FG][FG][FG][FG] | z [EG][EG][EG][EG][EG] | %19
 z [FG][FG][FG][FG][FG] | z [EG][EG][EG][EG][EG] | z [CEA][CEA][CEA][C^DA][CDA] | %22
 z [B,E^G][B,EG][B,EG][B,EG][B,EG] | z [^CGA][CGA][CGA][CGA][CGA] | %24
 z [CD^FA][CDFA][CDFA][CDFA][CDFA] | z [DGB][DGB][DGB][DGB][DGB] | z [DGB][DGB][DGB][DGB][DGB] | %27
 z [CD^F][CDF][CDF][CDF][CDF] | z [B,DG][B,DG][B,DG][B,DG][B,DG] | %29
 z [B,DG][B,DG][B,DG][B,DG][B,DG] | z [B,DG][B,DG][B,DG][B,DG][B,DG] | %31
 z [CD^F][CDF][CDF][CDF][CDF] | z [B,DG][B,DG][B,DG][B,DG][B,DG] | z [^CEG][CEG][CEG][CEG][CEG] | %34
 z [DFA][DFA][DFA][DFA][DFA] | z [B,DG][B,DG][B,DG][B,DG][B,DG] | z [CEG][CEG][CEG][CEG][CEG] | %37
 z [CEG][CEG][CEG][CEG][CEG] | z [CEG][CEG][CEG][CEG][CEG] | z [CEG][CEG][CEG][CEG][CEG] | %40
 z [DFG][DFG][DFG][DFG][DFG] | z [B,FG][B,FG][B,FG][B,FG][B,FG] | %42
 z [B,FG][B,FG][B,FG][B,FG][B,FG] | z [B,FG][B,FG][B,FG][B,FG][B,FG] | %44
 z [CEG][CEG][CEG][CEG][CEG] | z [CEG][CEG][CEG][CEG][CEG] | z [CEG][CEG][CEG][CEG][CEG] | %47
 z [CEG][CEG][CEG][CEG][CEG] | z [DFG][DFG][DFG][DFG][DFG] | z [B,FG][B,FG][B,FG][B,FG][B,FG] | %50
 z [B,FG][B,FG][B,FG][B,FG][B,FG] | z [B,FG][B,FG][B,FG][B,FG][B,FG] | %52
 z [CEG][CEG][CEG][CEG][CEG] | z [DFG][DFG][DFG][DFG][DFG] | z [CEG][CEG][CEG][CEG][CEG] | %55
 z [B,DFG][B,DFG][B,DFG][B,DFG][B,DFG] | z [CEG][CEG][CEG][CEG][CEG] | %57
 z [DFG][DFG][DFG][DFG][DFG] | z [CEG][CEG][CEG][CEG][CEG] | %59
 z [B,DFG][B,DFG][B,DFG][B,DFG][B,DFG] | [CEG]!pp! c'c'c'c'c' | c'[Ge][Ge][Ge][Ge][Ge] | %62
 [Ge]c'c'c'c'c' | c'[EG][EG][EG][EG][EG] | [EG]4 z2 :| %65
V:3
 z2 |: [C,,C,]2 z2 z2 | [C,,C,]2 z2 z2 | [C,,C,]2 z2 z2 | [B,,,B,,]2 z2 z2 | [G,,,G,,]2 z2 z2 | %6
 [G,,,G,,]2 z2 z2 | [G,,,G,,]2 z2 z2 | [C,,C,]2 z2 z2 | [C,,C,]2 z2 z2 | [C,,C,]2 z2 z2 | %11
 [C,,C,]2 z2 z2 | [B,,,B,,]2 z2 z2 | [G,,,G,,]2 z2 z2 | [G,,,G,,]2 z2 z2 | [G,,,G,,]2 z2 z2 | %16
 [C,,C,]2 z2 z2 | [B,,,B,,]6 | [C,,C,]6 | [B,,,B,,]6 | [C,,C,]6 | A,,6 | E,,6 | A,,6 | D,,6 | %25
 G,,6 | D,,6 | D,6 | G,,6 | G,,6 | D,,6 | D,6 | G,,6 | [G,,G,]6 | [F,,F,]6 | [G,,G,]6 | [C,,C,]6 | %37
 [C,,C,]6 | [C,,C,]6 | [C,,C,]6 | [B,,,B,,]6 | [G,,,G,,]6 | [G,,,G,,]6 | [G,,,G,,]6 | [C,,C,]6 | %45
 [C,,C,]6 | [C,,C,]6 | [C,,C,]6 | [B,,,B,,]6 | [G,,,G,,]6 | [G,,,G,,]6 | [G,,,G,,]6 | [C,,C,]6 | %53
 [B,,,B,,]6 | [C,,C,]6 | G,,6 | [C,,C,]6 | [B,,,B,,]6 | [C,,C,]6 | G,,6 | [C,,C,]2 z2 z2 | %61
 [C,,C,]2 z2 z2 | [C,,C,]2 z2 z2 | [C,,C,]2 z2 z2 | [C,,C,]4 z2 :| %65
V:4
 x2 |: x6 | x6 | x6 | x6 | x6 | x6 | x6 | x6 | x6 | x6 | x6 | x6 | x6 | x6 | x6 | x6 | x6 | x6 | %19
 x6 | x6 | x6 | x6 | x6 | x6 | x6 | x6 | x6 | x6 | x6 | x6 | x6 | x6 | x6 | x6 | x6 | x6 | x6 | %38
 x6 | x6 | x6 | x6 | x6 | x6 | x6 | x6 | x6 | x6 | x6 | x6 | x6 | x6 | x6 | x6 | x6 | x6 | x6 | %57
 x6 | x6 | x6 | x6 |[I:staff +1] x[I:staff -1] ccccc | c x5 | x CCCCC | C4 x2 :| %65

